icons/circle/48/ostorybook.svg

<svg viewBox="0 0 48 48" xmlns="http://www.w3.org/2000/svg">
 <defs>
  <linearGradient id="linearGradient3764" x1="1" x2="47" gradientTransform="matrix(0 -1 1 0 -1.5e-6 48)" gradientUnits="userSpaceOnUse">
   <stop style="stop-color:#e4e4e4" offset="0"/>
   <stop style="stop-color:#eee" offset="1"/>
  </linearGradient>
 </defs>
 <path d="m36.31 5c5.859 4.062 9.688 10.831 9.688 18.5 0 12.426-10.07 22.5-22.5 22.5-7.669 0-14.438-3.828-18.5-9.688 1.037 1.822 2.306 3.499 3.781 4.969 4.085 3.712 9.514 5.969 15.469 5.969 12.703 0 23-10.298 23-23 0-5.954-2.256-11.384-5.969-15.469-1.469-1.475-3.147-2.744-4.969-3.781zm4.969 3.781c3.854 4.113 6.219 9.637 6.219 15.719 0 12.703-10.297 23-23 23-6.081 0-11.606-2.364-15.719-6.219 4.16 4.144 9.883 6.719 16.219 6.719 12.703 0 23-10.298 23-23 0-6.335-2.575-12.06-6.719-16.219z" style="opacity:.05"/>
 <path d="m41.28 8.781c3.712 4.085 5.969 9.514 5.969 15.469 0 12.703-10.297 23-23 23-5.954 0-11.384-2.256-15.469-5.969 4.113 3.854 9.637 6.219 15.719 6.219 12.703 0 23-10.298 23-23 0-6.081-2.364-11.606-6.219-15.719z" style="opacity:.1"/>
 <path d="m31.25 2.375c8.615 3.154 14.75 11.417 14.75 21.13 0 12.426-10.07 22.5-22.5 22.5-9.708 0-17.971-6.135-21.12-14.75a23 23 0 0 0 44.875-7 23 23 0 0 0-16-21.875z" style="opacity:.2"/>
 <path d="m24 1c12.703 0 23 10.297 23 23s-10.297 23-23 23-23-10.297-23-23 10.297-23 23-23z" style="fill:url(#linearGradient3764)"/>
 <path d="m25 10a12 15 0 0 0-12 15 12 15 0 0 0 12 15 12 15 0 0 0 12-15 12 15 0 0 0-12-15m0 2a10 13 0 0 1 10 13 10 13 0 0 1-10 13 10 13 0 0 1-10-13 10 13 0 0 1 10-13m0 1.9c-0.554 0-1 0.446-1 1v2c0 0.554 0.446 1 1 1s1-0.446 1-1v-2c0-0.554-0.446-1-1-1zm-4.725 2.5c-0.262 0-0.524 0.1-0.725 0.301-0.401 0.401-0.401 1.048 0 1.449l1.45 1.45c0.401 0.401 1.048 0.401 1.449 0s0.401-1.048 0-1.449l-1.449-1.45c-0.201-0.201-0.463-0.301-0.725-0.301zm9.449 0c-0.262 0-0.524 0.1-0.725 0.301l-1.449 1.449c-0.401 0.401-0.401 1.048 0 1.449s1.048 0.401 1.449 0l1.449-1.449c0.401-0.401 0.401-1.048 0-1.449-0.201-0.201-0.463-0.301-0.725-0.301zm-4.742 3.1a1 1 0 0 0-0.814 0.445l-5 7.5a1 1 0 0 0 0 1.109l1.832 2.746v2.7a1 1 0 0 0 1 1h6a1 1 0 0 0 1-1v-2.697l1.832-2.748a1 1 0 0 0 0-1.109l-5-7.5a1 1 0 0 0-0.85-0.446m0.018 2.803 3.799 5.697-1.629 2.445a1 1 0 0 0-0.17 0.555v2h-4v-2a1 1 0 0 0-0.168-0.555l-1.632-2.445 3.8-5.697m0 4.697c-0.554 0-1 0.446-1 1v1c0 0.554 0.446 1 1 1s1-0.446 1-1v-1c0-0.554-0.446-1-1-1z" style="fill-opacity:.098"/>
 <path d="m40.03 7.531c3.712 4.084 5.969 9.514 5.969 15.469 0 12.703-10.297 23-23 23-5.954 0-11.384-2.256-15.469-5.969 4.178 4.291 10.01 6.969 16.469 6.969 12.703 0 23-10.298 23-23 0-6.462-2.677-12.291-6.969-16.469z" style="opacity:.1"/>
 <path d="m24 9a12 15 0 0 0-12 15 12 15 0 0 0 12 15 12 15 0 0 0 12-15 12 15 0 0 0-12-15zm0 2a10 13 0 0 1 10 13 10 13 0 0 1-10 13 10 13 0 0 1-10-13 10 13 0 0 1 10-13z" style="fill:#e84444"/>
 <rect x="23" y="26" width="2" height="3" rx="1" style="fill:#333"/>
 <rect transform="translate(9 -40.6)" x="14" y="53.5" width="2" height="4" rx="1" style="fill:#989730"/>
 <rect transform="matrix(.70711 -.70711 .70711 .70711 9 -40.6)" x="-34.08" y="46.564" width="2.049" height="4.098" rx="1.024" ry="1.025" style="fill:#989730"/>
 <rect transform="matrix(-.70711 -.70711 -.70711 .70711 9 -40.6)" x="-55.3" y="25.351" width="2.049" height="4.098" rx="1.024" ry="1.025" style="fill:#989730"/>
 <path d="m23.982 18.5a1 1 0 0 0-0.814 0.445l-5 7.5a1 1 0 0 0 0 1.109l1.832 2.746v2.7a1 1 0 0 0 1 1h6a1 1 0 0 0 1-1v-2.697l1.832-2.748a1 1 0 0 0 0-1.109l-5-7.5a1 1 0 0 0-0.85-0.446m0.018 2.803 3.799 5.697-1.629 2.445a1 1 0 0 0-0.17 0.555v2h-4v-2a1 1 0 0 0-0.168-0.555l-1.632-2.445 3.8-5.697" solid-color="#000000" style="color-rendering:auto;fill-rule:evenodd;fill:#333;image-rendering:auto;shape-rendering:auto" isolation="auto" mix-blend-mode="normal" white-space="normal"/>
</svg>

<svg xmlns="http://www.w3.org/2000/svg" viewBox="0 0 48 48">
 <defs>
  <linearGradient id="linearGradient3764" x1="1" x2="47" gradientUnits="userSpaceOnUse" gradientTransform="matrix(0,-1,1,0,-1.5e-6,47.999998)">
   <stop style="stop-color:#e4e4e4;stop-opacity:1"/>
   <stop offset="1" style="stop-color:#eee;stop-opacity:1"/>
  </linearGradient>
 </defs>
 <g>
  <path d="m 36.31 5 c 5.859 4.062 9.688 10.831 9.688 18.5 c 0 12.426 -10.07 22.5 -22.5 22.5 c -7.669 0 -14.438 -3.828 -18.5 -9.688 c 1.037 1.822 2.306 3.499 3.781 4.969 c 4.085 3.712 9.514 5.969 15.469 5.969 c 12.703 0 23 -10.298 23 -23 c 0 -5.954 -2.256 -11.384 -5.969 -15.469 c -1.469 -1.475 -3.147 -2.744 -4.969 -3.781 z m 4.969 3.781 c 3.854 4.113 6.219 9.637 6.219 15.719 c 0 12.703 -10.297 23 -23 23 c -6.081 0 -11.606 -2.364 -15.719 -6.219 c 4.16 4.144 9.883 6.719 16.219 6.719 c 12.703 0 23 -10.298 23 -23 c 0 -6.335 -2.575 -12.06 -6.719 -16.219 z" style="opacity:0.05"/>
  <path d="m 41.28 8.781 c 3.712 4.085 5.969 9.514 5.969 15.469 c 0 12.703 -10.297 23 -23 23 c -5.954 0 -11.384 -2.256 -15.469 -5.969 c 4.113 3.854 9.637 6.219 15.719 6.219 c 12.703 0 23 -10.298 23 -23 c 0 -6.081 -2.364 -11.606 -6.219 -15.719 z" style="opacity:0.1"/>
  <path d="m 31.25 2.375 c 8.615 3.154 14.75 11.417 14.75 21.13 c 0 12.426 -10.07 22.5 -22.5 22.5 c -9.708 0 -17.971 -6.135 -21.12 -14.75 a 23 23 0 0 0 44.875 -7 a 23 23 0 0 0 -16 -21.875 z" style="opacity:0.2"/>
 </g>
 <g>
  <path d="m 24 1 c 12.703 0 23 10.297 23 23 c 0 12.703 -10.297 23 -23 23 -12.703 0 -23 -10.297 -23 -23 0 -12.703 10.297 -23 23 -23 z" style="fill:url(#linearGradient3764);fill-opacity:1"/>
 </g>
 <path d="M 25 10 A 12 15 0 0 0 13 25 12 15 0 0 0 25 40 12 15 0 0 0 37 25 12 15 0 0 0 25 10 m 0 2 A 10 13 0 0 1 35 25 10 13 0 0 1 25 38 10 13 0 0 1 15 25 10 13 0 0 1 25 12 m 0 1.9 c -0.554 0 -1 0.446 -1 1 l 0 2 c 0 0.554 0.446 1 1 1 0.554 0 1 -0.446 1 -1 l 0 -2 c 0 -0.554 -0.446 -1 -1 -1 z m -4.725 2.5 c -0.262 0 -0.524 0.1 -0.725 0.301 -0.401 0.401 -0.401 1.048 0 1.449 L 21 19.6 c 0.401 0.401 1.048 0.401 1.449 0 0.401 -0.401 0.401 -1.048 0 -1.449 L 21 16.701 c -0.201 -0.201 -0.463 -0.301 -0.725 -0.301 z m 9.449 0 c -0.262 0 -0.524 0.1 -0.725 0.301 l -1.449 1.449 c -0.401 0.401 -0.401 1.048 0 1.449 0.401 0.401 1.048 0.401 1.449 0 l 1.449 -1.449 c 0.401 -0.401 0.401 -1.048 0 -1.449 -0.201 -0.201 -0.463 -0.301 -0.725 -0.301 z M 24.982 19.5 a 1 1 0 0 0 -0.814 0.445 l -5 7.5 a 1 1 0 0 0 0 1.109 L 21 31.3 21 34 a 1 1 0 0 0 1 1 l 6 0 a 1 1 0 0 0 1 -1 l 0 -2.697 1.832 -2.748 a 1 1 0 0 0 0 -1.109 l -5 -7.5 A 1 1 0 0 0 24.982 19.5 m 0.018 2.803 L 28.799 28 27.17 30.445 A 1 1 0 0 0 27 31 l 0 2 -4 0 0 -2 A 1 1 0 0 0 22.832 30.445 L 21.2 28 25 22.303 m 0 4.697 c -0.554 0 -1 0.446 -1 1 l 0 1 c 0 0.554 0.446 1 1 1 0.554 0 1 -0.446 1 -1 l 0 -1 c 0 -0.554 -0.446 -1 -1 -1 z" style="fill:#000;fill-opacity:0.098;stroke:none"/>
 <g>
  <path d="m 40.03 7.531 c 3.712 4.084 5.969 9.514 5.969 15.469 0 12.703 -10.297 23 -23 23 c -5.954 0 -11.384 -2.256 -15.469 -5.969 4.178 4.291 10.01 6.969 16.469 6.969 c 12.703 0 23 -10.298 23 -23 0 -6.462 -2.677 -12.291 -6.969 -16.469 z" style="opacity:0.1"/>
 </g>
 <g>
  <path d="M 24 9 A 12 15 0 0 0 12 24 A 12 15 0 0 0 24 39 A 12 15 0 0 0 36 24 A 12 15 0 0 0 24 9 z M 24 11 A 10 13 0 0 1 34 24 A 10 13 0 0 1 24 37 A 10 13 0 0 1 14 24 A 10 13 0 0 1 24 11 z" style="fill:#e84444;fill-opacity:1;stroke:none"/>
  <rect width="2" height="3" x="23" y="26" rx="1" style="fill:#333;fill-opacity:1;stroke:none"/>
  <rect width="2" height="4" x="14" y="53.5" rx="1" transform="translate(9.0000001,-40.599999)" style="fill:#989730;fill-opacity:1;stroke:none"/>
  <rect rx="1.024" y="46.564" x="-34.08" height="4.098" width="2.049" transform="matrix(0.70710678,-0.70710678,0.70710678,0.70710678,9.0000001,-40.599999)" ry="1.025" style="fill:#989730;fill-opacity:1;stroke:none"/>
  <rect transform="matrix(-0.70710678,-0.70710678,-0.70710678,0.70710678,9.0000001,-40.599999)" width="2.049" height="4.098" x="-55.3" y="25.351" rx="1.024" ry="1.025" style="fill:#989730;fill-opacity:1;stroke:none"/>
  <path d="m 23.982 18.5 a 1 1 0 0 0 -0.814 0.445 l -5 7.5 a 1 1 0 0 0 0 1.109 L 20 30.3 20 33 a 1 1 0 0 0 1 1 l 6 0 a 1 1 0 0 0 1 -1 l 0 -2.697 1.832 -2.748 a 1 1 0 0 0 0 -1.109 l -5 -7.5 A 1 1 0 0 0 23.982 18.5 M 24 21.303 27.799 27 26.17 29.445 A 1 1 0 0 0 26 30 l 0 2 -4 0 0 -2 A 1 1 0 0 0 21.832 29.445 L 20.2 27 24 21.303" mix-blend-mode="normal" isolation="auto" white-space="normal" solid-opacity="1" solid-color="#000000" style="visibility:visible;shape-rendering:auto;color-interpolation-filters:linearRGB;fill:#333;opacity:1;image-rendering:auto;fill-opacity:1;stroke:none;display:inline;color:#000;fill-rule:evenodd;color-rendering:auto;color-interpolation:sRGB"/>
 </g>
</svg>
